priv/static/svgs/icons_new/software-hand.svg

<svg width="32" height="32" viewBox="0 0 32 32" fill="none" xmlns="http://www.w3.org/2000/svg">
<path d="M6.72246 9.52163C6.26451 8.7243 6.53627 7.70477 7.32946 7.24443C8.12265 6.78409 8.84503 6.9666 9.59483 7.85461L13.596 12.0136C13.8021 12.2279 14.1179 12.293 14.3913 12.1776L17.6476 10.8028C21.2996 9.41939 23.378 11.2638 24.82 14.4145C26.2519 17.5431 25.4212 21.5735 22.3381 23.3628C19.7078 24.8894 16.9646 24.4106 14.0382 24.3939C12.8184 24.387 11.3066 25.1399 10.1332 25.4727C9.81661 25.5625 9.47168 25.4272 9.35734 25.1172C9.27134 24.884 9.21137 24.6413 9.17892 24.3936C9.12212 23.9595 9.15085 23.5184 9.26357 23.0955C9.37629 22.6726 9.57081 22.2761 9.83595 21.9287C10.3091 21.309 11.1925 20.4497 11.9664 19.8863C12.3028 19.6413 12.4347 19.172 12.2223 18.8131L6.72246 9.52163Z" stroke="black"/>
</svg>

<svg width="32" height="32" viewBox="0 0 32 32" fill="none" xmlns="http://www.w3.org/2000/svg">
  <symbol id="item" viewBox="0 0 32 32" stroke-width="1" fill="none">
    <path d="M6.722 9.522a1.672 1.672 0 0 1 .607-2.278c.794-.46 1.516-.277 2.266.61l4.001 4.16c.206.214.522.279.795.164l3.257-1.375c3.652-1.384 5.73.46 7.172 3.611 1.432 3.13.601 7.16-2.482 8.949-2.63 1.526-5.373 1.048-8.3 1.03-1.22-.006-2.731.747-3.905 1.08-.316.09-.661-.046-.776-.356a3.348 3.348 0 0 1 .479-3.188c.473-.62 1.357-1.48 2.13-2.043.337-.245.469-.714.256-1.073l-5.5-9.291Z" stroke="currentColor"/>
  </symbol>
</svg>
